X: 2050
M: 3/2
L: 1/8
K: Gm
|:\
=e6 =f2f3g | ^c3c d2=e e3d | d6- d4 ::\
[M:3/2]\
a2g2a2 d2g2a2 | b2g2f2 =e2d2c2 | f6 e6 | z2c2B2 A2G2F2 |\
d2=e2f2 =e2^f2g2 | ^f2g3(f/g/) a4 |\
[M:C|]\
^F3F G3A | A4 G4 | A3A B3B |
=B3B c3d |\
e4 e4 | =e3e f3e | ^f3b g3^f | g8- |\
[M:3/2]\
g3ga2 |\
b3ag2 a3bg2 | ^f3ga2 d3cd2 | e6 c3de2 |\
f3gf2 d3cd2 |
e3fd2 c3dB2 | A6 G3ga2 | b3ag2 a3bg2 | ^f3ga2 d3cd2 |\
e6 =e6 | ^f3ga2 d3ga2 | b3ag2 g3a^f2 | g6- g4 |]


